X:1
T:Je ne mange point de porc
T:Je ne mange point de porc
T:Claudin de Sermisy
C:Claudin de Sermisy
%%score [ 1 2 3 ]
L:1/8
Q:1/4=218
M:2/2
K:F
V:1 treble nm="Superius"
V:2 treble-8 nm="Tenor"
V:3 bass nm="Bassus"
V:1
 z16 | G4 G2 G2 B6 A2 | G4 F4 DEFG A2 B2 | A2 B2 c4 B4 z2 B2 | B2 B2 A2 G2 F2 G4 ^F2 | %5
w: |Se j'ay par- lé *|* * * * * * * au-|cu- * ne- ment des|da- mes de re- li- * gi-|
 G4 z2 D2 E4 F4 | G4 A4 B2 A4 G2 | A4 z2 A2 B4 A4 | z2 A2 B4 A4 z2 A2 | B4 c4 B4 A2 B2- | %10
w: on de la bas-|se * con- di- ti-|on, je l'ay fait,|je l'ay fait, je|l'ay fait par é- *|
 B2 A2 G2 A4 G4 ^F2 | G16 | z16 | G4 G2 G2 B6 A2 | G4 F4 DEFG A2 B2 | A2 B4 c2 B4 z2 B2 | %16
w: * * * bat- * te-|ment.||Sans y pen- ser, *|* * * * * * * sou-|dai- * ne- ment, ce|
 B2 B2 A2 G2 F2 G4 ^F2 | G16 | z16 | G4 G2 G2 B6 A2 | G4 F4 DEFG A2 B2 | A2 B4 c2 B4 z2 B2 | %22
w: fut par bonne in- ten- * ti-|on.||Car je sais bien *|* * * * * * * que|loy- * aul- ment, le|
 B2 B2 A2 G2 F2 G4 ^F2 | G4 z2 D2 E4 F4 | G4 A4 B2 A4 G2 | A4 z2 A2 B4 A4 | z2 A2 B4 A4 z2 A2 | %27
w: font par bonne af- fec- * ti-|on. Et pour tou-|te con- * clu- si-|on, je m'en, *|je m'en, * je|
 B4 c4 B4 A2 B2- | B2 A2 G2 A4 G4 ^F2 | G16 |] %30
w: m'en re- pens pré- *|* * * ci- * sé-|ment.|
V:2
 z8 G4 G2 G2 | B6 A2 G4 F4 | GABc d4 z2 d2 c2 B2 | A2 B2 c4 B4 z2 d2 | d2 d2 c2 B2 A2 G2 A4 | %5
w: Se j'ay par-|lé * * *|* * * * * au- cu- *|* * ne- ment des|da- mes de re- li- * gi-|
 G4 z4 z2 G2 A4 | B4 c4 d2 A2 B4 | A4 d4 z2 G2 d4 | c4 z2 G2 d4 c4 | d4 z2 A2 B4 c2 d2- | %10
w: on de la|bas- se * con- di-|ti- on, je l'ay|fait, je l'ay fait,|* je l'ay fait par|
 d2 c2 B2 c4 B2 A4 | G16 | z8 G4 G2 G2 | B6 A2 G4 F4 | GABc d4 z2 d2 c2 B2 | A2 B2 c4 B4 z2 d2 | %16
w: * * é- bat- * te-|ment.|Sans y pen-|ser, * * *|* * * * * sou- dai- *|* * ne- ment, ce|
 d2 d2 c2 B2 A2 G2 A4 | G16 | z8 G4 G2 G2 | B6 A2 G4 F4 | GABc d4 z2 d2 c2 B2 | A2 B2 c4 B4 z2 d2 | %22
w: fut par bonne in- ten- * ti-|on.|Car je sais|bien * * *|* * * * * que loy- *|* * aul- ment, le|
 d2 d2 c2 B2 A2 G2 A4 | G4 z4 z2 G2 A4 | B4 c4 d2 A2 B4 | A4 d4 z2 G2 d4 | c4 z2 G2 d4 c4 | %27
w: font par bonne af- fec- * ti-|on. Et pour|tou- te con- * clu-|si- on, je m'en,|* je m'en, *|
 d4 z2 A2 B4 c2 d2- | d2 c2 B2 c4 B2 A4 | G16 |] %30
w: * je m'en re- pens|* * pré- ci- * sé-|ment.|
V:3
 G,4 G,2 G,2 B,4 B,A,G,F, | _E,8 E,4 z2 D,2 | _E,4 D,2 B,,3 C,D,=E, F,2 G,2 | %3
w: Se j'ay par- lé * * * *|* * au-|* * cu- * * * * *|
 F,2 G,2 F,4 B,,2 G,,2 z2 G,2 | G,2 G,2 A,F, G,2 D,2 E,2 D,4 | G,,4 G,4 C,4 z2 D,2 | %6
w: * * ne- * ment des|da- mes de * re- li- * gi-|on * * de|
 G,4 F,2 A,2 G,2 F,2 G,2 _E,2 | F,4 D,4 G,4 z2 D,2 | F,4 G,4 z2 D,2 F,4 | B,,4 F,4 G,4 F,2 B,,2- | %10
w: la bas- * se * con- *|di- ti- on, je|l'ay fait, je l'ay|fait, je l'ay fait par|
 B,,2 F,2 G,2 F,4 G,2 D,4 | G,,16 | G,4 G,2 G,2 B,4 B,A,G,F, | _E,8 E,4 z2 D,2 | %14
w: * é- * bat- * te-|ment.|Sans y pen- ser, * * * *|* * sou-|
 _E,4 D,2 B,,3 C,D,=E, F,2 G,2 | F,2 G,2 F,4 B,,2 G,,2 z2 G,2 | G,2 G,2 A,F, G,2 D,2 E,2 D,4 | %17
w: dai- * * * * * * *|* * ne- * ment, ce|fut par bonne * in- * ten- ti-|
 G,,16 | G,4 G,2 G,2 B,4 B,A,G,F, | _E,8 E,4 z2 D,2 | _E,4 D,2 B,,3 C,D,=E, F,2 G,2 | %21
w: on.|Car je sais bien * * * *|* * que|loy- * * * * * * *|
 F,2 G,2 F,4 B,,2 G,,2 z2 G,2 | G,2 G,2 A,F, G,2 D,2 E,2 D,4 | G,,4 G,4 C,4 z2 D,2 | %24
w: * * aul- * ment, le|font par bonne * * af- fec- ti-|on. * * Et|
 G,4 F,2 A,2 G,2 F,2 G,2 _E,2 | F,4 D,4 G,4 z2 D,2 | F,4 G,4 z2 D,2 F,4 | B,,4 F,4 G,4 F,2 B,,2- | %28
w: pour tou- * te * con- *|clu- si- on, je|m'en, * je m'en,|* je m'en re- pens|
 B,,2 F,2 G,2 F,4 G,2 D,4 | G,,16 |] %30
w: * * pré- ci- * sé-|ment.|

